cssgg/maze.svg

<svg
  width="24"
  height="24"
  viewBox="0 0 24 24"
  fill="none"
  xmlns="http://www.w3.org/2000/svg"
>
  <path
    d="M11.3709 9.59273L8.77816 7L1 14.7782L3.59272 17.3709L11.3709 9.59273Z"
    fill="currentColor"
  />
  <path
    d="M15.2218 7L23 14.7782L20.424 17.3542L15.2218 12.152L10.0197 17.3542L7.44367 14.7782L15.2218 7Z"
    fill="currentColor"
  />
</svg>

<svg viewBox="0 0 24 24" xmlns="http://www.w3.org/2000/svg"><g><path d="M11.37 9.59l-2.6-2.6 -7.78 7.77 2.59 2.59 7.77-7.78Z"/><path d="M15.22 7l7.77 7.77 -2.58 2.57 -5.21-5.21 -5.21 5.2 -2.58-2.58 7.77-7.78Z"/></g></svg>
